X: 25087
T: Maids Of Mitchelstown, The
R: reel
M: 4/4
K: Dmixolydian
D2 AG EG G2|(3AcA GA cAGE|D2 AG EG G2|A2 GE EDDA|
DAAG EG G2|(3AcA GA cAGE|DAAG EG G2|A2 GE EDDA||
DFAB c2 AG|Adde =f2 ed|cAGE =F3G|(3ABc GE EDDA|
DFAB cEGc|Adde =f2 ed|cAGE =F3G|(3ABc Bd cAGE||

